X: 57
T:Lasses of Limerick (#167), The
M:6/8
L:1/8
S:O'Farrell's Pocket Companion 1804-10
K:F
d|cAG GAG|cAG G2 A|cAG GAG|cAG F2 d|
cAG GAG|cAG G2 A|cAG dfd|cAG F2:|
|d|:cAG ded|cAG G2 A|cAG ded|cAG F2 d|
cAG ded|cAG G2 A|cAG f2 d|cAG F2 d:|
|:g2 g f2 d|cAG G2 d|g2 e f2 d|cAG F2 d|
g2 e f2 d|gag f2 d|g2 e fed|cAG G2 A:|
|:B3 BdB|A2 A AcA|G2 G GAG|cAG G2 A|
B3 BdB|A2 A AcA|GAG fed|cAG F2 A:||

